src/assets/logos/truebit.svg

<svg height="98" viewBox="0 0 267 98" width="267" xmlns="http://www.w3.org/2000/svg"><path d="m89.5695706 97.1769384c-2.3701486-1.1036036-4.2442197-2.759009-5.4017341-4.9662162-.7716763-1.3795045-.9921552-3.8626126-1.1023947-14.7331081l-.220479-13.0225226-2.700867-.6621621c-1.9291908-.4966216-2.7008671-.9380631-2.7008671-1.6002252 0-.7725226 1.1023948-1.213964 5.6773328-2.1520271 3.0867052-.6621621 6.1734104-1.3795045 6.889967-1.545045l1.2126342-.3310811v14.5675676c0 14.2916666 0 14.6779279 1.2677539 16.4988738.6614368.9932433 1.874071 2.2072072 2.5906276 2.5934685 1.7087118.8828829 8.9293968.606982 11.1893068-.4414414l1.488232-.7173424v-13.1328829-13.0777027l-2.755986-.6621621c-1.984311-.4966216-2.755987-.9380631-2.755987-1.6002252 0-.7725226 1.102395-1.213964 5.677333-2.1520271 3.086705-.6621621 6.17341-1.3795045 6.889967-1.545045l1.212634-.3310811v16.8851351c0 16.1677928.05512 16.9403153 1.102394 17.9887388.606318.606982 1.818952 1.1036036 2.755987 1.1036036 1.267754 0 1.653592.2759009 1.653592 1.0484234 0 1.3243243-4.07886 2.8141892-7.771882 2.8141892-2.370149 0-2.811107-.2207207-4.133981-1.8761261l-1.488232-1.820946-3.307185 1.7105856c-2.866226 1.4898649-3.968621 1.7105856-8.3230797 1.8761261-3.6379026.0551802-5.5670933-.1103603-6.9450867-.7173423zm48.9463254.1103603c-7.551404-2.8693693-11.520025-7.9459459-12.346821-15.8367117-.937035-9.6013513 3.196945-17.9335585 10.748349-21.4650901 2.590627-1.2139639 3.858381-1.4346846 8.047481-1.4346846 4.24422 0 5.346614.2207207 7.716763 1.4346846 3.086705 1.6002253 6.008051 5.0213964 6.889967 8.1114865.275599 1.1036036.551197 3.5867117.551197 5.518018v3.4211712h-12.732659-12.732659l.385839 2.9245496c.496077 4.0833333 2.645747 8.2218468 5.126135 9.9324324 3.031585 2.0968468 6.449009 2.759009 13.614575 2.5382883 6.17341-.2207207 6.338769-.2207207 6.338769.9380631 0 .8828828-.771676 1.545045-3.417423 2.759009-3.031586 1.3243243-4.24422 1.545045-9.811313 1.7105855-4.409579.1103604-6.945087-.0551801-8.3782-.5518018zm12.787779-27.59009c-.440958-3.8626127-1.488233-5.9594595-3.637903-6.8975226-2.204789-1.0484234-5.401734-.7725225-7.441164.606982-2.03943 1.3243243-4.905657 6.3457207-4.905657 8.4977478v1.2691441h8.157721 8.157721zm93.86891 27.259009c-3.362304-2.1520271-3.527663-2.9797298-3.472544-18.7612613v-14.2916667l-2.755986-.6621621c-4.464699-1.0484234-3.527664-3.2556307 1.433113-3.3108108 1.708711 0 1.763831-.0551802 3.031585-4.7454955 1.377993-4.9110361 1.708712-5.3524775 4.795417-6.0146397l1.763832-.3862612v5.5731982 5.5731982h6.063171 6.063171v2.2072072 2.2072072h-6.063171-6.063171v12.9121621c0 16.2781532-.385838 15.5608109 7.716763 15.3952703 5.401734-.0551802 5.567093 0 5.401734 1.1036036-.440958 3.1452703-14.110653 5.5731982-17.913914 3.2004505zm-231.8336089-.6621622c-.3307185-1.213964.2755986-1.545045 4.5198183-2.7038288l2.2599092-.606982v-24.2240991-24.2792793h-6.7797275-6.77972755l-1.81895128 5.518018c-1.37799339 4.3592343-1.98431048 5.5180181-2.81110652 5.5180181-.99215524 0-1.37799339-2.6486487-1.81895128-12.9673424l-.11023947-2.152027 24.8038811-.0551802c21.6069364 0 24.8038811.1103604 24.6936416.8277027-.0551197.4414414-.6063171 3.8626126-1.2677539 7.6148649-1.047275 5.7939189-1.3779934 6.731982-2.2599092 6.731982-.6614368 0-1.1575144-.5518019-1.3779934-1.4898649-.1653592-.8828829-.7716763-3.2556306-1.2677539-5.4076577l-.9370355-3.8626126-6.7246078-.1655405-6.7246077-.1655406v24.2792793 24.2792793l3.1969446.8828829c1.7087119.4966216 3.3071842 1.2139639 3.5276631 1.545045 1.2126342 1.9313063.6063171 2.0416667-10.8034682 2.0416667-10.8585879 0-11.2444261-.0551802-11.5200247-1.1587838zm33.8986374 0c.1102395-.8277027.9370356-1.4346847 2.6457474-2.0968468l2.4803881-.9380631.1653592-14.402027.1102394-14.4020271-2.7559867-.6621621c-1.9843105-.4966216-2.7559868-.9380631-2.7559868-1.6002252 0-.7725226 1.2677539-1.213964 6.5041288-2.3727478 3.5276631-.7725225 6.6143683-1.3243243 6.889967-1.1587838.2204789.1103604.3858381 1.0484234.3858381 2.0968469v1.8761261l3.4725434-1.6554054c3.5276631-1.6554054 10.0317919-3.1452703 10.6932287-2.4831081.4960776.4966216-1.4882329 12.0292793-2.1496697 12.9121621-.3307184.3310811-.9370355.6621622-1.3228737.6621622-.4409578 0-.7716763-.3310811-.7716763-.6621622 0-.3862612-.606317-1.9864864-1.3228736-3.5867117-1.5984723-3.4211711-2.8111065-3.9177928-6.1734104-2.6486486l-2.4252684.938063.1102395 13.5743244.1653592 13.6295045 2.700867.8828829c1.8189513.5518018 2.8662263 1.2139639 3.141825 2.0416666l.4409579 1.213964h-10.1971511c-10.0869117 0-10.1971512 0-10.031792-1.1587838zm119.4995875-.1103604c0-1.0484234.440958-1.4346846 2.370148-1.9864864 1.267754-.3862613 2.645748-.9932433 3.031586-1.2691442.496077-.4414414.661437-5.9594594.661437-24.1689189s-.16536-23.7274775-.661437-24.1689189c-.385838-.2759009-1.763832-.8828829-3.031586-1.2691442-1.874071-.5518018-2.370148-.938063-2.370148-1.9313063v-1.2139639l15.047688.0551801c14.386251.1103604 15.102807.1655406 17.748554 1.3795045 3.472544 1.6002253 5.126136 3.1452703 6.39389 5.9042793 1.157514 2.5382883 1.377993 7.1182433.385838 10.2635135-.826796 2.8141892-3.693022 6.1801802-6.504129 7.5596847l-2.259909 1.1036036 2.590628.8828829c3.748142 1.2691442 6.008051 3.2556306 7.661643 6.6768018 1.377993 2.7038288 1.488233 3.5315315 1.267754 7.338964-.330719 5.0213964-1.543353 7.8355856-4.850537 10.8153153-4.850537 4.4144144-9.204996 5.2972973-25.465318 5.2972973h-12.016102zm27.449628-4.2488738c6.008051-3.4211712 7.551404-13.6295045 2.811107-18.981982-2.20479-2.5382883-5.677333-3.6418919-11.354666-3.6418919h-4.574938v11.8085586c0 8.9391891.165359 11.9189189.716557 12.1396396.330718.1655405 2.755986.2207207 5.346614.1655405 3.748142-.1103603 5.181255-.4414414 7.055326-1.4898648zm-4.023741-27.0934685c4.850537-1.3795045 7.386045-4.911036 7.441165-10.3186937 0-3.6418919-.992156-6.0698198-3.252065-8.0011261-2.204789-1.8761261-4.905656-2.5934685-9.535714-2.5934685h-3.748142v10.7601351 10.7601352h3.472543c1.874071 0 4.409579-.2759009 5.622213-.606982zm23.977085 31.3975225c0-1.0484234.496078-1.4346847 2.645748-2.0968468l2.590627-.8277027.16536-14.4020271.110239-14.3468468-2.755987-.7173423c-1.98431-.4966217-2.755987-.9932433-2.755987-1.6554054 0-.7725226 1.102395-1.213964 5.677333-2.2072073 3.086705-.6621621 6.173411-1.3243243 6.834847-1.4898648l1.157515-.3310811-.275599 14.5675676c-.165359 7.9459459-.165359 15.947072.05512 17.6576576l.385838 3.1452703 2.590628.7173423c1.98431.5518018 2.645747 1.0484235 2.755986 1.9864865l.16536 1.213964h-9.645954c-9.701074 0-9.701074 0-9.701074-1.213964zm3.79002-45.2101378c-2.109335-2.2088354-6.772077-7.0682731-10.380151-10.7680723s-6.550042-7.0130522-6.550042-7.2891566c0-.3313253 4.052145 1.4909638 9.047939 4.0863453l8.992431 4.6385543 1.221194-1.7670683c4.829269-6.9578313 21.814971-23.5240964 31.195963-30.42670684 5.828428-4.30722892 15.042894-9.93975904 15.486964-9.44277109.166527.16566265-.888141 1.32530121-2.38688 2.59538153-5.162321 4.19678715-19.42809 18.9407631-23.924306 24.7389558-5.439865 6.9578313-11.268292 15.5722892-15.209419 22.5301205-1.609756 2.7610442-3.108495 5.0803213-3.275021 5.0803213-.222036 0-2.164845-1.8222892-4.218672-3.9759036z" fill-rule="evenodd" transform="translate(0 -.005)"/></svg>

<svg xmlns="http://www.w3.org/2000/svg" width="267" height="98" viewBox="0 0 267 98">
  <path fill-rule="evenodd" d="M89.5695706,97.1769384 C87.199422,96.0733348 85.3253509,94.4179294 84.1678365,92.2107222 C83.3961602,90.8312177 83.1756813,88.3481096 83.0654418,77.4776141 L82.8449628,64.4550915 L80.1440958,63.7929294 C78.214905,63.2963078 77.4432287,62.8548663 77.4432287,62.1927042 C77.4432287,61.4201816 78.5456235,60.9787402 83.1205615,60.0406771 C86.2072667,59.378515 89.2939719,58.6611726 90.0105285,58.4956321 L91.2231627,58.164551 L91.2231627,72.7321186 C91.2231627,87.0237852 91.2231627,87.4100465 92.4909166,89.2309924 C93.1523534,90.2242357 94.3649876,91.4381996 95.0815442,91.8244609 C96.790256,92.7073438 104.010941,92.4314429 106.270851,91.3830195 L107.759083,90.6656771 L107.759083,77.5327942 L107.759083,64.4550915 L105.003097,63.7929294 C103.018786,63.2963078 102.24711,62.8548663 102.24711,62.1927042 C102.24711,61.4201816 103.349505,60.9787402 107.924443,60.0406771 C111.011148,59.378515 114.097853,58.6611726 114.81441,58.4956321 L116.027044,58.164551 L116.027044,75.0496861 C116.027044,91.2174789 116.082164,91.9900014 117.129438,93.0384249 C117.735756,93.6454069 118.94839,94.1420285 119.885425,94.1420285 C121.153179,94.1420285 121.539017,94.4179294 121.539017,95.1904519 C121.539017,96.5147762 117.460157,98.0046411 113.767135,98.0046411 C111.396986,98.0046411 110.956028,97.7839204 109.633154,96.128515 L108.144922,94.307569 L104.837737,96.0181546 C101.971511,97.5080195 100.869116,97.7287402 96.5146573,97.8942807 C92.8767547,97.9494609 90.947564,97.7839204 89.5695706,97.1769384 Z M138.515896,97.2872987 C130.964492,94.4179294 126.995871,89.3413528 126.169075,81.450587 C125.23204,71.8492357 129.36602,63.5170285 136.917424,59.9854969 C139.508051,58.771533 140.775805,58.5508123 144.964905,58.5508123 C149.209125,58.5508123 150.311519,58.771533 152.681668,59.9854969 C155.768373,61.5857222 158.689719,65.0068933 159.571635,68.0969834 C159.847234,69.200587 160.122832,71.6836951 160.122832,73.6150014 L160.122832,77.0361726 L147.390173,77.0361726 L134.657514,77.0361726 L135.043353,79.9607222 C135.53943,84.0440555 137.6891,88.182569 140.169488,89.8931546 C143.201073,91.9900014 146.618497,92.6521636 153.784063,92.4314429 C159.957473,92.2107222 160.122832,92.2107222 160.122832,93.369506 C160.122832,94.2523888 159.351156,94.914551 156.705409,96.128515 C153.673823,97.4528393 152.461189,97.67356 146.894096,97.8391005 C142.484517,97.9494609 139.949009,97.7839204 138.515896,97.2872987 Z M151.303675,69.6972087 C150.862717,65.834596 149.815442,63.7377492 147.665772,62.7996861 C145.460983,61.7512627 142.264038,62.0271636 140.224608,63.4066681 C138.185178,64.7309924 135.318951,69.7523888 135.318951,71.9044159 L135.318951,73.17356 L143.476672,73.17356 L151.634393,73.17356 L151.303675,69.6972087 Z M245.172585,96.9562177 C241.810281,94.8041906 241.644922,93.9764879 241.700041,78.1949564 L241.700041,63.9032897 L238.944055,63.2411276 C234.479356,62.1927042 235.416391,59.9854969 240.377168,59.9303168 C242.085879,59.9303168 242.140999,59.8751366 243.408753,55.1848213 C244.786746,50.2737852 245.117465,49.8323438 248.20417,49.1701816 L249.968002,48.7839204 L249.968002,54.3571186 L249.968002,59.9303168 L256.031173,59.9303168 L262.094344,59.9303168 L262.094344,62.137524 L262.094344,64.3447312 L256.031173,64.3447312 L249.968002,64.3447312 L249.968002,77.2568933 C249.968002,93.5350465 249.582164,92.8177042 257.684765,92.6521636 C263.086499,92.5969834 263.251858,92.6521636 263.086499,93.7557672 C262.645541,96.9010375 248.975846,99.3289654 245.172585,96.9562177 Z M13.3389761,96.2940555 C13.0082576,95.0800915 13.6145747,94.7490105 17.8587944,93.5902267 L20.1187036,92.9832447 L20.1187036,68.7591456 L20.1187036,44.4798663 L13.3389761,44.4798663 L6.55924855,44.4798663 L4.74029727,49.9978843 C3.36230388,54.3571186 2.75598679,55.5159024 1.92919075,55.5159024 C0.937035508,55.5159024 0.551197358,52.8672537 0.110239472,42.54856 L-1.42108547e-14,40.396533 L24.8038811,40.3413528 C46.4108175,40.3413528 49.6077622,40.4517132 49.4975227,41.1690555 C49.442403,41.6104969 48.8912056,45.0316681 48.2297688,48.7839204 C47.1824938,54.5778393 46.8517754,55.5159024 45.9698596,55.5159024 C45.3084228,55.5159024 44.8123452,54.9641005 44.5918662,54.0260375 C44.426507,53.1431546 43.8201899,50.7704069 43.3241123,48.6183798 L42.3870768,44.7557672 L35.662469,44.5902267 L28.9378613,44.4246861 L28.9378613,68.7039654 L28.9378613,92.9832447 L32.1348059,93.8661276 C33.8435178,94.3627492 35.4419901,95.0800915 35.662469,95.4111726 C36.8751032,97.3424789 36.2687861,97.4528393 24.8590008,97.4528393 C14.0004129,97.4528393 13.6145747,97.3976591 13.3389761,96.2940555 Z M47.2376135,96.2940555 C47.347853,95.4663528 48.1746491,94.8593708 49.8833609,94.1972087 L52.363749,93.2591456 L52.5291082,78.8571186 L52.6393476,64.4550915 L49.8833609,63.7929294 C47.8990504,63.2963078 47.1273741,62.8548663 47.1273741,62.1927042 C47.1273741,61.4201816 48.395128,60.9787402 53.6315029,59.8199564 C57.159166,59.0474339 60.2458712,58.4956321 60.5214699,58.6611726 C60.7419488,58.771533 60.907308,59.709596 60.907308,60.7580195 L60.907308,62.6341456 L64.3798514,60.9787402 C67.9075145,59.3233348 74.4116433,57.8334699 75.0730801,58.4956321 C75.5691577,58.9922537 73.5848472,70.5249114 72.9234104,71.4077942 C72.592692,71.7388753 71.9863749,72.0699564 71.6005367,72.0699564 C71.1595789,72.0699564 70.8288604,71.7388753 70.8288604,71.4077942 C70.8288604,71.021533 70.2225434,69.4213078 69.5059868,67.8210825 C67.9075145,64.3999114 66.6948803,63.9032897 63.3325764,65.1724339 L60.907308,66.1104969 L61.0175475,79.6848213 L61.1829067,93.3143258 L63.8837737,94.1972087 C65.702725,94.7490105 66.75,95.4111726 67.0255987,96.2388753 L67.4665566,97.4528393 L57.2694055,97.4528393 C47.1824938,97.4528393 47.0722543,97.4528393 47.2376135,96.2940555 Z M166.737201,96.1836951 C166.737201,95.1352717 167.178159,94.7490105 169.107349,94.1972087 C170.375103,93.8109474 171.753097,93.2039654 172.138935,92.9280645 C172.635012,92.4866231 172.800372,86.9686051 172.800372,68.7591456 C172.800372,50.5496861 172.635012,45.0316681 172.138935,44.5902267 C171.753097,44.3143258 170.375103,43.7073438 169.107349,43.3210825 C167.233278,42.7692807 166.737201,42.3830195 166.737201,41.3897762 L166.737201,40.1758123 L181.784889,40.2309924 C196.17114,40.3413528 196.887696,40.396533 199.533443,41.6104969 C203.005987,43.2107222 204.659579,44.7557672 205.927333,47.5147762 C207.084847,50.0530645 207.305326,54.6330195 206.313171,57.7782897 C205.486375,60.5924789 202.620149,63.9584699 199.809042,65.3379744 L197.549133,66.441578 L200.139761,67.3244609 C203.887903,68.5936051 206.147812,70.5800915 207.801404,74.0012627 C209.179397,76.7050915 209.289637,77.5327942 209.069158,81.3402267 C208.738439,86.3616231 207.525805,89.1758123 204.218621,92.155542 C199.368084,96.5699564 195.013625,97.4528393 178.753303,97.4528393 L166.737201,97.4528393 L166.737201,96.1836951 Z M194.186829,91.9348213 C200.19488,88.5136501 201.738233,78.3053168 196.997936,72.9528393 C194.793146,70.414551 191.320603,69.3109474 185.64327,69.3109474 L181.068332,69.3109474 L181.068332,81.119506 C181.068332,90.0586951 181.233691,93.0384249 181.784889,93.2591456 C182.115607,93.4246861 184.540875,93.4798663 187.131503,93.4246861 C190.879645,93.3143258 192.312758,92.9832447 194.186829,91.9348213 Z M190.163088,64.8413528 C195.013625,63.4618483 197.549133,59.9303168 197.604253,54.5226591 C197.604253,50.8807672 196.612097,48.4528393 194.352188,46.521533 C192.147399,44.6454069 189.446532,43.9280645 184.816474,43.9280645 L181.068332,43.9280645 L181.068332,54.6881996 L181.068332,65.4483348 L184.540875,65.4483348 C186.414946,65.4483348 188.950454,65.1724339 190.163088,64.8413528 Z M214.140173,96.2388753 C214.140173,95.1904519 214.636251,94.8041906 216.785921,94.1420285 L219.376548,93.3143258 L219.541908,78.9122987 L219.652147,64.5654519 L216.89616,63.8481096 C214.91185,63.3514879 214.140173,62.8548663 214.140173,62.1927042 C214.140173,61.4201816 215.242568,60.9787402 219.817506,59.9854969 C222.904211,59.3233348 225.990917,58.6611726 226.652353,58.4956321 L227.809868,58.164551 L227.534269,72.7321186 C227.36891,80.6780645 227.36891,88.6791906 227.589389,90.3897762 L227.975227,93.5350465 L230.565855,94.2523888 C232.550165,94.8041906 233.211602,95.3008123 233.321841,96.2388753 L233.487201,97.4528393 L223.841247,97.4528393 C214.140173,97.4528393 214.140173,97.4528393 214.140173,96.2388753 Z M217.930193,51.0287375 C215.820858,48.8199021 211.158116,43.9604644 207.550042,40.2606652 C203.941968,36.560866 201,33.247613 201,32.9715086 C201,32.6401833 205.052145,34.4624724 210.047939,37.0578539 L219.04037,41.6964082 L220.261564,39.9293399 C225.090833,32.9715086 242.076535,16.4052435 251.457527,9.50263306 C257.285955,5.19540414 266.500421,-0.437125979 266.944491,0.0598619726 C267.111018,0.225524623 266.05635,1.38516318 264.557611,2.6552435 C259.39529,6.85203065 245.129521,21.5960066 240.633305,27.3941993 C235.19344,34.3520306 229.365013,42.9664885 225.423886,49.9243198 C223.81413,52.685364 222.315391,55.0046411 222.148865,55.0046411 C221.926829,55.0046411 219.98402,53.1823519 217.930193,51.0287375 Z" transform="translate(0 -.005)"/>
</svg>
